!!!OTL: Buchsbaum und Felbinger
!!!ARE: Europa, Mitteleuropa, Deutschland
!!!SCT: A0273B
!!!YEM: Copyright 1995, estate of Helmut Schaffrath.
**kern
*ICvox
*Ivox
!! Mixed meters:  6/2; 4/2
*M6/2
*k[f#]
*G:
{2g
2g
2g
=1
1a
1b
=2
1cc
2cc
1cc}
{2cc
=3
*M4/2
1cc
1cc
=4
*M6/2
2.b
4a
2b
1a
2g
=5
*M4/2
0a
=6
2r}
{2a
2fn
2fn
=7
1e
2e
2d
=8
4d
4c
4d
4e
2fn
2fn
=9
0g
=10
1r}
{1b
=11
2.cc
4b
2a
2g
=12
1a
1g
=13
2r}
==
!!!AGN: Romanze, Ballade, Lied
!! Schmeltzel Quodl.XI 1544
!!!ONB: ESAC (Essen Associative Code) Database: ALTDEU
!!!AMT: irregular
!!!AIN: vox
!!!EED: Helmut Schaffrath
!!!EEV: 1.0
*-
